X:1
T:the Baggpipe tune (at sounding pitch)
Z:Jack Campin: "Embro, Embro", transcription (c) 2001
F:11cries/abc/Bagg2.abc
S:NLS MS.9454 c.1675
M:6/4 % 3 in MS
L:1/8
Q:3/4=108
K:D
[D2D2](CB,) A,2 [D2D2] E3  D |C2 (E2 E2) A2  C4    |\
[D2D2](CB,) A,2 [D2D2] E2(DE)|F2 (D2 D2) C2 [D4D4]:|
 DEFG       A2   E2    F2(ED)|C2 (E2 E2) A2  C4    |\
 DEFG       A2   E2   (FG)A2 |F2 (D2 D2) C2 [D4D4]:|
 D2   (d2   d2) (cB)   A2(GF)|G2  E2(FG) A2  C4    |\
 D2   (d2   d2)  cB    cd ef |d2 (D2 D2) C2 [D4D4]:|

